src/lib/packages/icons/src/assets/line/music.svg

<svg width="24" height="24" viewBox="0 0 24 24" fill="none" xmlns="http://www.w3.org/2000/svg">
<path d="M18.962 2.62798C18.439 2.23098 17.7219 2.144 16.8929 2.377L9.25696 4.51616C7.96296 4.87916 7.25 5.81698 7.25 7.15898V15.771C6.744 15.445 6.145 15.251 5.5 15.251C3.708 15.251 2.25 16.709 2.25 18.501C2.25 20.293 3.708 21.751 5.5 21.751C7.292 21.751 8.75 20.293 8.75 18.501V11.65L18.25 8.99004V12.771C17.744 12.445 17.145 12.251 16.5 12.251C14.708 12.251 13.25 13.709 13.25 15.501C13.25 17.293 14.708 18.751 16.5 18.751C18.286 18.751 19.739 17.3021 19.748 15.5181C19.748 15.5151 19.75 15.5131 19.75 15.5101V4.54106C19.75 3.66706 19.485 3.02398 18.962 2.62798ZM5.5 20.25C4.535 20.25 3.75 19.465 3.75 18.5C3.75 17.535 4.535 16.75 5.5 16.75C6.465 16.75 7.25 17.535 7.25 18.5C7.25 19.465 6.465 20.25 5.5 20.25ZM8.75 10.0911V7.15801C8.75 6.48001 9.00601 6.14301 9.66101 5.96001L17.297 3.82109C17.638 3.72609 17.928 3.72705 18.056 3.82305C18.18 3.91605 18.25 4.17713 18.25 4.53813V7.42998L8.75 10.0911ZM16.5 17.25C15.535 17.25 14.75 16.465 14.75 15.5C14.75 14.535 15.535 13.75 16.5 13.75C17.465 13.75 18.25 14.535 18.25 15.5C18.25 16.465 17.465 17.25 16.5 17.25Z" fill="currentColor"/>
</svg>

<svg xmlns="http://www.w3.org/2000/svg" width="24" height="24" fill="none"><path fill="currentColor" d="M18.962 2.628c-.523-.397-1.24-.484-2.07-.251l-7.635 2.14c-1.294.362-2.007 1.3-2.007 2.642v8.612a3.22 3.22 0 0 0-1.75-.52 3.254 3.254 0 0 0-3.25 3.25 3.254 3.254 0 0 0 3.25 3.25 3.254 3.254 0 0 0 3.25-3.25V11.65l9.5-2.66v3.781a3.22 3.22 0 0 0-1.75-.52 3.254 3.254 0 0 0-3.25 3.25 3.254 3.254 0 0 0 3.25 3.25 3.252 3.252 0 0 0 3.248-3.233l.002-.008V4.541c0-.874-.265-1.517-.788-1.913ZM5.5 20.25c-.965 0-1.75-.785-1.75-1.75s.785-1.75 1.75-1.75 1.75.785 1.75 1.75-.785 1.75-1.75 1.75Zm3.25-10.159V7.158c0-.678.256-1.015.911-1.198l7.636-2.139c.341-.095.631-.094.759.002.124.093.194.354.194.715V7.43l-9.5 2.661Zm7.75 7.159c-.965 0-1.75-.785-1.75-1.75s.785-1.75 1.75-1.75 1.75.785 1.75 1.75-.785 1.75-1.75 1.75Z"/></svg>
